public/icons/radio-button-checked-lilac.svg

<svg fill="#7c7fcd" height="24" viewBox="0 0 24 24" width="24" xmlns="http://www.w3.org/2000/svg">
    <path d="M12 7c-2.76 0-5 2.24-5 5s2.24 5 5 5 5-2.24 5-5-2.24-5-5-5zm0-5C6.48 2 2 6.48 2 12s4.48 10 10 10 10-4.48 10-10S17.52 2 12 2zm0 18c-4.42 0-8-3.58-8-8s3.58-8 8-8 8 3.58 8 8-3.58 8-8 8z"/>
    <path d="M0 0h24v24H0z" fill="none"/>
</svg>

<?xml version="1.0" encoding="UTF-8"?>
<svg width="20px" height="20px" viewBox="0 0 20 20" version="1.1" xmlns="http://www.w3.org/2000/svg" xmlns:xlink="http://www.w3.org/1999/xlink">
    <!-- Generator: Sketch 44.1 (41455) - http://www.bohemiancoding.com/sketch -->
    <title>radio-button-checked-lilac</title>
    <desc>Created with Sketch.</desc>
    <defs></defs>
    <g id="Page-1" stroke="none" stroke-width="1" fill="none" fill-rule="evenodd">
        <g id="radio-button-checked-lilac" transform="translate(-2.000000, -2.000000)">
            <path d="M12,2 C6.48,2 2,6.48 2,12 C2,17.52 6.48,22 12,22 C17.52,22 22,17.52 22,12 C22,6.48 17.52,2 12,2 Z" id="Path" fill="#7C7FCD"></path>
            <path d="M12,20 C7.58,20 4,16.42 4,12 C4,7.58 7.58,4 12,4 C16.42,4 20,7.58 20,12 C20,16.42 16.42,20 12,20 Z" id="Path" fill="#FFFFFF"></path>
            <path d="M12,7 C9.24,7 7,9.24 7,12 C7,14.76 9.24,17 12,17 C14.76,17 17,14.76 17,12 C17,9.24 14.76,7 12,7 Z" id="Path" fill="#7C7FCD"></path>
            <polygon id="Shape" points="0 0 24 0 24 24 0 24"></polygon>
        </g>
    </g>
</svg>
